Obsidian/places/16s/folder-videos-symbolic.svg

<svg height="16" width="16" xmlns="http://www.w3.org/2000/svg"><path d="m.75 0c-.4155 0-.75.3345-.75.75v13.5c0 .4155.3345.75.75.75h14.5c.4155 0 .75-.3345.75-.75v-13.5c0-.4155-.3345-.75-.75-.75zm.25 1h1v1h-1zm3.5 0h7c.277 0 .5.223.5.5v5c0 .277-.223.5-.5.5h-7c-.277 0-.5-.223-.5-.5v-5c0-.277.223-.5.5-.5zm9.5 0h1v1h-1zm-13 2h1v1h-1zm13 0h1v1h-1zm-13 2h1v1h-1zm13 0h1v1h-1zm-13 2h1v1h-1zm13 0h1v1h-1zm-9.5 1h7c.277 0 .5.223.5.5v5c0 .277-.223.5-.5.5h-7c-.277 0-.5-.223-.5-.5v-5c0-.277.223-.5.5-.5zm-3.5 1h1v1h-1zm13 0h1v1h-1zm-13 2h1v1h-1zm13 0h1v1h-1zm-13 2h1v1h-1zm13 0h1v1h-1z" fill="#bebebe" transform="translate(0 1)"/></svg>

<?xml version="1.0" encoding="UTF-8" standalone="no"?>
<!-- Created with Inkscape (http://www.inkscape.org/) -->

<svg
   xmlns:dc="http://purl.org/dc/elements/1.1/"
   xmlns:cc="http://creativecommons.org/ns#"
   xmlns:rdf="http://www.w3.org/1999/02/22-rdf-syntax-ns#"
   xmlns:svg="http://www.w3.org/2000/svg"
   xmlns="http://www.w3.org/2000/svg"
   xmlns:sodipodi="http://sodipodi.sourceforge.net/DTD/sodipodi-0.dtd"
   xmlns:inkscape="http://www.inkscape.org/namespaces/inkscape"
   version="1.1"
   width="16"
   height="16"
   id="svg3021"
   sodipodi:docname="folder-videos-symbolic.svg"
   inkscape:version="0.92.2 2405546, 2018-03-11">
  <sodipodi:namedview
     pagecolor="#ffffff"
     bordercolor="#666666"
     borderopacity="1"
     objecttolerance="10"
     gridtolerance="10"
     guidetolerance="10"
     inkscape:pageopacity="0"
     inkscape:pageshadow="2"
     inkscape:window-width="1920"
     inkscape:window-height="1010"
     id="namedview7"
     showgrid="false"
     inkscape:zoom="20.85965"
     inkscape:cx="-5.589471"
     inkscape:cy="6.015895"
     inkscape:window-x="0"
     inkscape:window-y="32"
     inkscape:window-maximized="1"
     inkscape:current-layer="svg3021" />
  <defs
     id="defs3023" />
  <metadata
     id="metadata3026">
    <rdf:RDF>
      <cc:Work
         rdf:about="">
        <dc:format>image/svg+xml</dc:format>
        <dc:type
           rdf:resource="http://purl.org/dc/dcmitype/StillImage" />
        <dc:title />
      </cc:Work>
    </rdf:RDF>
  </metadata>
  <g
     id="layer1"
     transform="translate(0,1)">
    <path
       d="M 0.75,0 C 0.3345,0 0,0.3345 0,0.75 v 13.5 C 0,14.6655 0.3345,15 0.75,15 h 14.5 C 15.6655,15 16,14.6655 16,14.25 V 0.75 C 16,0.3345 15.6655,0 15.25,0 Z M 1,1 H 2 V 2 H 1 Z m 3.5,0 h 7 C 11.777,1 12,1.223 12,1.5 v 5 C 12,6.777 11.777,7 11.5,7 h -7 C 4.223,7 4,6.777 4,6.5 v -5 C 4,1.223 4.223,1 4.5,1 Z M 14,1 h 1 V 2 H 14 Z M 1,3 H 2 V 4 H 1 Z m 13,0 h 1 V 4 H 14 Z M 1,5 H 2 V 6 H 1 Z m 13,0 h 1 V 6 H 14 Z M 1,7 H 2 V 8 H 1 Z m 13,0 h 1 V 8 H 14 Z M 4.5,8 h 7 C 11.777,8 12,8.223 12,8.5 v 5 c 0,0.277 -0.223,0.5 -0.5,0.5 h -7 C 4.223,14 4,13.777 4,13.5 v -5 C 4,8.223 4.223,8 4.5,8 Z M 1,9 h 1 v 1 H 1 Z m 13,0 h 1 v 1 H 14 Z M 1,11 h 1 v 1 H 1 Z m 13,0 h 1 v 1 H 14 Z M 1,13 h 1 v 1 H 1 Z m 13,0 h 1 v 1 h -1 z"
       inkscape:connector-curvature="0"
       id="rect3032"
       style="color:#bebebe;display:inline;overflow:visible;visibility:visible;fill:#bebebe;fill-opacity:1;fill-rule:nonzero;stroke:none;stroke-width:1;marker:none;enable-background:accumulate"
       sodipodi:nodetypes="ssssssssscccccssssssssscccccccccccccccccccccccccccccccccccssssssssscccccccccccccccccccccccccccccc" />
  </g>
</svg>
